X:3
T:An Anjelus (Amzer Nedeleg)
C:Ch. Le Bris
M:2/4
L:1/8
K:Am
E|A B (cB)|(AG) A B|(c2 B) E|A B c B|
A2 (G^F)|E2 zE|A B c B|d2 (cB)|A2z||
